X:511
T:Polska # 511
T: efter fadern
Q: 120
M:3/4
L:1/16
K: A
E2| A3A c2c2 e2e2 | (fg)fe f2g2 (ab)af| e3c A3c (fg)ec| B2B2 G2B2 (de)dB|
A3A c2c2 e2e2 | (fg)fe f2g2 (ab)af| (ef)ed (cB)cd (ef)ed| (BG)BG A6:|
|:e2| e2e2 a2a2 c'2a2| (fg)fe f2g2 a2f2| (ef)ed c2d2 e2a2| (gf)ga (ba)gf e4|
e2e2 a2a2 c'2a2| (fg)fe f2g2 a2f2| (ef)ed B2c2 d2c2| (Bc)BG A6 :|

